src/assets/icon/arrows.group.svg

<svg width="60" height="24" viewBox="0 0 60 24" fill="none" xmlns="http://www.w3.org/2000/svg">
<path d="M25.9697 19.5303C25.7034 19.2641 25.6792 18.8474 25.8971 18.5538L25.9697 18.4697L32.439 12L25.9697 5.53033C25.7034 5.26406 25.6792 4.8474 25.8971 4.55379L25.9697 4.46967C26.2359 4.2034 26.6526 4.1792 26.9462 4.39705L27.0303 4.46967L34.0303 11.4697C34.2966 11.7359 34.3208 12.1526 34.1029 12.4462L34.0303 12.5303L27.0303 19.5303C26.7374 19.8232 26.2626 19.8232 25.9697 19.5303Z" fill="white" fill-opacity="0.5"/>
<path d="M43.9697 19.5303C43.7034 19.2641 43.6792 18.8474 43.8971 18.5538L43.9697 18.4697L50.439 12L43.9697 5.53033C43.7034 5.26406 43.6792 4.8474 43.8971 4.55379L43.9697 4.46967C44.2359 4.2034 44.6526 4.1792 44.9462 4.39705L45.0303 4.46967L52.0303 11.4697C52.2966 11.7359 52.3208 12.1526 52.1029 12.4462L52.0303 12.5303L45.0303 19.5303C44.7374 19.8232 44.2626 19.8232 43.9697 19.5303Z" fill="white"/>
<path d="M7.96967 19.5303C7.7034 19.2641 7.6792 18.8474 7.89705 18.5538L7.96967 18.4697L14.439 12L7.96967 5.53033C7.7034 5.26406 7.6792 4.8474 7.89705 4.55379L7.96967 4.46967C8.23594 4.2034 8.6526 4.1792 8.94621 4.39705L9.03033 4.46967L16.0303 11.4697C16.2966 11.7359 16.3208 12.1526 16.1029 12.4462L16.0303 12.5303L9.03033 19.5303C8.73744 19.8232 8.26256 19.8232 7.96967 19.5303Z" fill="white" fill-opacity="0.25"/>
</svg>

<svg width="60" height="24" fill="none" xmlns="http://www.w3.org/2000/svg"><path d="M25.97 19.53a.75.75 0 0 1-.073-.976l.073-.084L32.439 12l-6.47-6.47a.75.75 0 0 1-.072-.976l.073-.084a.75.75 0 0 1 .976-.073l.084.073 7 7a.75.75 0 0 1 .073.976l-.073.084-7 7a.75.75 0 0 1-1.06 0Z" fill="#fff" fill-opacity=".5"/><path d="M43.97 19.53a.75.75 0 0 1-.073-.976l.073-.084L50.439 12l-6.47-6.47a.75.75 0 0 1-.072-.976l.073-.084a.75.75 0 0 1 .976-.073l.084.073 7 7a.75.75 0 0 1 .073.976l-.073.084-7 7a.75.75 0 0 1-1.06 0Z" fill="#fff"/><path d="M7.97 19.53a.75.75 0 0 1-.073-.976l.073-.084L14.439 12l-6.47-6.47a.75.75 0 0 1-.072-.976l.073-.084a.75.75 0 0 1 .976-.073l.084.073 7 7a.75.75 0 0 1 .073.976l-.073.084-7 7a.75.75 0 0 1-1.06 0Z" fill="#fff" fill-opacity=".25"/></svg>
